X:1
T:Somewhat musing
T:Robert Fayrfax (1464-1521)
T:Poem by Anthony Woodville (c.1440-1483), second Earl Rivers
T:Somewhat musing
T:Copyright © 
T:Copyright © 
T:Copyright © 
C:Robert Fayrfax (1464-1521)
Z:Poem by Anthony Woodville
Z:(c.1440-1483), second Earl Rivers
Z:Copyright ©
%%score [ 1 2 3 ]
L:1/8
M:4/4
K:Bb
V:1 treble nm="Counter tenor" snm="A."
V:2 treble-8 transpose=-12 nm="Tenor" snm="T."
V:3 bass nm="Bass" snm="B."
V:1
 D4 D4 | F4 G3 F/=E/ | D4 z4 | z4 z2 A2 | A2 A2 A2 B2 | A2 GG F2 D2 | D2 D2 (D4 | B,4) A,4 | %8
w: Some- what|mu- sing _ _|_|in|re- mem- b'ring the|un- stead- fast- ness this|world be- ing|_ _|
 B,4 C4 | A,4 G,4 | z8 | z2 D2 F3 =E | D3 C/B,/ A,3 B, | A,4 G,2 z2 | z8 | z8 | z8 | z8 | z8 | %19
w: of such|wheel- ing||what may I|guess _ _ _ _|_ _||||||
 z4 B4 | A4 G4 | F4 z2 B2 | A2 G2 F4 | z2 F2 F2 F2 | F4 z2 F2 | B2 A4 G2- | G2 ^F2 G4 | D4 F4 | %28
w: for|un- kind-|ness with-|out- en- less|and no red-|dress me|doth ad- *|* * vance|with dis-|
 G4 F4 | D4 =E4 | (F3 G/A/) (B3 A/G/) | F4 z4 | z8 | z8 | z2 D2 B,4 | A,4 G,2 D2 | F2 G2 F3 E/D/ | %37
w: plea- sance|to my|grie- * * vance _ _|_|||and no|'sur- ance of|re- me- dy _ _|
 C4 D3 C/B,/ | A,2 C2 D2 =E2 | F2 C2 D3 C | B,2 A,2 D2 C2 | A,2 D2 G,A,B,C | D=EFG AGE^F | %43
w: _ _ _ _|* lo in this|trance now in sub-|stance such is my|dance _ _ _ _ _|_ _ _ _ _ _ _ _|
 G4 z2 B2 | A4 G4 | F4 E2 G2- | G2 F3 E D2 | C8 || D4 F4 | C4 (D3 C/B,/) | A,4 z4 | z8 | z4 z2 G2 | %53
w: * wil-|ling to|die _ _|_ _ _ _||Me think-|eth tru- * *|ly||to|
 F2 F2 B4- | B2 A4 G2 | F2 B4 A2 | G2 F2 GFED | C4 B,4 | z8 | z4 z2 F2 | B2 B2 A4 | D4 F2 C2 | %62
w: be con- tent|_ _ _|||||for-|tune doth wry|all con- tra-|
 D2 G2 F2 D2 | C4 z2 F2 | B2 A4 G2- | G2 FE D2 G2- | G2 F2 E4 | z4 |[M:6/4] z12 |[M:4/4] z4 | %70
w: ry from mine in|tent *|||||||
 G4 F4 | D4 C4 | z2 C2 C2 C2 | D2 D2 =E2 ^F2 | G2 D2 C2 A,2 | B,3 C A,4 | z2 A2 A2 A2 | A4 z2 A2 | %78
w: to an|in- tent|it is nigh|spent, wel- come for-|tune, wel- come for-|tune, _ _|yet I ne'er|went thus|
 B2 (A3 G) G2- | G2 ^F2 G4 | z4 z2 B2 | A2 G2 F4 | G3 F/E/ D3 C/B,/ | A,2 =B,2 A,2 B,A, | =B,16 |] %85
w: to be _ shent,|_ _ _|such|is her won.|_ _ _ _ _ _|||
V:2
 G4 B4 | A4 G4 | z2 B2 A4 | G4 F2 d2 | c2 d2 A2 d2 | c2 BB A2 F2 | A2 B2 A4 | z8 | G4 A4 | D4 G4 | %10
w: Some- what|mu- sing|and more|mour- ning in|re- mem- b'ring the|un- stead- fast- ness this|world be- ing||of such|wheel- ing|
 z2 D2 =E2 ^FF | G4 z2 G2 | B2 B2 F4 | z4 z2 A2 | A4 B4 | A4 A4 | B2 B2 A4- | A2 B2 A2 G2 | %18
w: me con- tra- ry-|ing what|may I guess|I|fear doubt-|less re-|me- di- less|_ is now to|
 F2 G2 =E2 ^F2 | G4 z2 d2- | d2 d2 e4 | d8 | z2 D2 D2 D2 | D4 z2 d2 | d2 d2 d4 | G4 B4 | A4 G4 | %27
w: cease my woe- ful|chance for|_ un- kind-|ness|with- out- en-|less and|no red ress|me doth|ad- vance|
 z2 B2 A2 A2 | GABc d2 F2 | B4 A2 G2 | F4 G2 B2 | A2 d4 e2 | d4 c2 B2 | cBAG A2 =E^F | G4 z2 d2 | %35
w: with dis- plea-|sance _ _ _ _ to|my great grie-|vance _ _|_ _ _|||* and|
 d2 c2 B2 G2 | A2 c2 d3 c/B/ | A4 G4 | z2 A2 B2 G2 | F2 A2 G2 F2 | G2 F2 G2 A2 | F4 B4- | B2 A6 | %43
w: no 'sur- ance of|re- me- dy _ _|_ _|lo in this|trance now in sub-|stance such is my|dance _|_ _|
 G4 G4 | F4 z2 c2 | d3 c/B/ c2 GA | B2 d2 edcB | A8 || B4 B2 B2 | A4 (B3 A/G/) | F4 z2 G2 | %51
w: * wil-|ling to|die _ _ _ _ _|_ _ _ _ _ _||Me think- eth|eth tru- * *|ly boun-|
 F2 F2 G2 G2 | F2 F2 B2 B2 | A2 A2 G3 F/E/ | D4 d2 e2 | d4 B2 c2 | e2 d2 edcB | c2 AG B4 | %58
w: den were I and|that great- ly to|be con- tent _ _|_ _ _||||
 z2 d4 d2- | d2 c2 d2 d2 | d2 d2 d4 | B4 B2 A2 | B2 B2 B2 B2 | A4 d4- | d4 c4- | c4 B4- | B4 c4 | %67
w: see- ing|_ plain- ly for-|tune doth wry|all con- tra-|ry from mine in|tent _|_ _|||
 z2 c2 |[M:6/4] d4 c2 B2 c2 B2 |[M:4/4] c4 | z2 e2 d2 c2 | (B3 A/G/ c2) A2 | A2 A2 A4 | %73
w: my|life was lent _ _|_|to an in-|tent _ _ _ it|is nigh spent,|
 z2 F2 G2 A2 | G2 G2 A2 ^F2 | G2 D=E FG F2 | F4 z2 c2 | F2 A2 D2 c2 | d2 c3 BAG | A4 G2 B2 | %80
w: wel- come for-|tune, _ _ _|_ _ _ _ _ _|* yet|I ne'er went thus|to be _ _ _|shent, _ but|
 A2 B2 A2 d2 | c2 B2 A4 | G3 A B3 A/G/ | F2 d6 | d16 |] %85
w: she it meant such|is her won.|_ _ _ _ _|||
V:3
 z8 | z8 | G,4 D,4 | E,4 D,2 D,2 | F,2 F,2 F,2 B,,2 | F,2 G,G, D,2 D,2 | F,2 G,2 D,4 | %7
w: ||and more|mour- ning in|re- mem- b'ring the|un- stead- fast- ness this|world be- ing|
 D,3 =E, F,4 | z8 | z8 | G,,2 B,,2 C,2 D,2 | G,,2 B,,2 B,,2 C,2 | G,,A,,B,,C, D,=E,F,G, | %13
w: _ _ _|||me con- tra- ry-|ing what may I|guess _ _ _ _ _ _ _|
 F,G,A,F, G,2 D,2 | F,4 (D,3 =E,) | F,4 z2 F,2 | D,2 D,2 F,4 | z2 G,2 D,2 E,2 | D,2 B,,2 C,2 D,2 | %19
w: _ _ _ _ _ I|fear doubt- *|less re-|me- di- less|is now to|cease my woe- ful|
 G,,4 z4 | z8 | z8 | z8 | z8 | z8 | z8 | z8 | G,4 D,4 | E,4 D,4 | z2 B,,2 C,2 C,2 | D,4 G,,4 | %31
w: chance||||||||with dis-|plea- sance|to my great|grie- vance|
 D,3 =E, F,2 G,2- | G,F,E,D, E,2 D,2 | E,D,C,B,, A,,4 | G,,4 G,4 | F,2 F,2 G,2 G,2 | %36
w: _ _ _ _|||* and|no 'sur- ance of|
 D,2 E,2 D,3 E, | F,3 G,/A,/ B,3 A,/G,/ | F,2 F,2 B,,2 C,2 | D,2 F,2 B,2 A,2 | G,2 D,2 B,,2 C,2 | %41
w: re- me dy _|_ _ _ _ _ _|* lo in this|trance now in sub-|stance such is my|
 D,4 z4 | z8 | z4 G,,4 | D,4 E,4 | D,4 C,4 | B,,3 C, D,2 E,2 | F,8 || G,4 D,2 D,2 | F,4 B,,4 | %50
w: dance||wil-|ling to|die _|_ _ _ _||Me think- eth|tru- ly|
 z2 D,2 C,2 B,,2 | A,,4 z2 B,,2 | A,,2 D,2 G,,4 | z8 | z8 | z8 | z8 | z8 | B,,4 F,4 | E,4 D,2 D,2 | %60
w: boun- den am|I and|that great- ly||||||see- ing|plain- ly for-|
 G,2 G,2 D,4 | z2 G,2 D,2 F,2 | B,,2 E,2 D,2 B,,2 | (F,4 B,,4) | G,2 F,4 E,D, | C,4 G,3 F, | %66
w: tune doth wry|all con- tra-|ry from mine in|tent _|_ _ _ _||
 E,2 D,2 C,4 | E,4 |[M:6/4] D,6 C,6 |[M:4/4] C,4 | z8 | z4 z2 F,2 | F,2 F,2 ((F,4 | B,,4)) z4 | %74
w: |my|life was|lent||it|is nigh spent,|_|
 z2 B,,2 C,2 D,2 | (G,,4 D,4) | z8 | z8 | z8 | z4 z2 G,2 | F,2 G,2 D,4 | z4 z2 D,2 | %82
w: wel- come for-|tune _||||but|she it meant,|such|
 E,2 C,2 B,,3 A,,/G,,/ | D,3 =E, F,2 G,/F,/E,/D,/ | G,16 |] %85
w: is her won. _ _|_ _ _ _ _ _ _||

